X:136
T: HOPP HOPP HOPP ICH BIN EIN REITERSMANN
N: F0258
O: Europa, Mitteleuropa, Deutschland, Schlesien
R: Jugend - Lied, Kinder, Spiel, Kniereiter - Lied
M: 4/4
L: 1/8
K: D
A,A,A, | D3F,A,3G, | G,2F,2z2
F,F, | A,2A,2G,2G,2 | E,2E,2
G,2G,2 | B,2B,2A,2A,2 | F,2F,2
A,2A,2 | D2D2B,2B,2 | E4
C2A,2 | A,2A,2B,2C2 | D2z3

